design-system/file-manager/img/devices.svg

<?xml version="1.0" ?><svg height="48" viewBox="0 0 48 48" width="48" xmlns="http://www.w3.org/2000/svg"><path d="M0 0h48v48h-48z" fill="none"/><path d="M8 12h36v-4h-36c-2.21 0-4 1.79-4 4v22h-4v6h28v-6h-20v-22zm38 4h-12c-1.1 0-2 .9-2 2v20c0 1.1.9 2 2 2h12c1.1 0 2-.9 2-2v-20c0-1.1-.9-2-2-2zm-2 18h-8v-14h8v14z"/></svg>

<?xml version="1.0" encoding="utf-8"?>
<!-- Generator: Adobe Illustrator 24.2.3, SVG Export Plug-In . SVG Version: 6.00 Build 0)  -->
<svg version="1.1" id="Layer_1" xmlns="http://www.w3.org/2000/svg" xmlns:xlink="http://www.w3.org/1999/xlink" x="0px" y="0px"
	 viewBox="0 0 48 48" style="enable-background:new 0 0 48 48;" xml:space="preserve">
<style type="text/css">
	.st0{fill:none;}
	.st1{fill:#845EC2;}
</style>
<path class="st0" d="M0,0h48v48H0V0z"/>
<path class="st1" d="M9,13h35V8H8c-2.2,0-4,1.8-4,4v22H0v6h28v-6H9V13z M46,16H34c-1.1,0-2,0.9-2,2v20c0,1.1,0.9,2,2,2h12
	c1.1,0,2-0.9,2-2V18C48,16.9,47.1,16,46,16z M44,34h-8V20h8V34z"/>
</svg>
